Numix/32x32/places/folder-pictures.svg

<svg width="32" xmlns="http://www.w3.org/2000/svg" height="32" viewBox="0 0 32 32">
<g style="stroke:#a77b55" transform="translate(0 1)">
<path style="fill:#a77b55" d="M 4.3464647,24.5 C 3.8874205,24.452956 3.5,23.991935 3.5,23.497984 L 3.5,4.5067202 C 3.5,3.9798389 3.946022,3.5 4.437622,3.5 l 23.124756,0 C 28.053978,3.5 28.5,3.9798389 28.5,4.5067202 l 0,16.2350548 c 0,0.526881 -0.718078,1.28348 -1.209678,1.28348 l -8.465029,-0.01481 0,1.324124 c 0,0.522177 -0.411445,1.165426 -0.899787,1.165426 l -13.487884,0 c -0.0293,0 -0.058601,0 -0.091156,0 z"/>
<path style="fill:#e9b080" d="M 1.5496163,5.5 C 0.9804014,5.5470431 0.5000001,6.0080649 0.5000001,6.5020161 l 0,18.9912639 c 0,0.526881 0.5530672,1.00672 1.1626514,1.00672 l 28.6746975,0 C 30.946933,26.5 31.5,26.020161 31.5,25.49328 l 0,-16.2350547 C 31.5,8.7313437 30.609584,7.9747449 30,7.9747449 l -10.496636,0.014805 0,-1.3241241 C 19.503364,6.1432479 18.993173,5.5 18.387626,5.5 l -16.7249745,0 c -0.036332,0 -0.072665,0 -0.1130352,0 z"/>
</g>
<g style="fill:#a77b55">
<g transform="matrix(.93772 0 0 .93772 .99646 1.121)">
<path d="m 11.40625,12.667969 c -0.375,0.03516 -0.699219,0.429687 -0.691406,0.851562 l 0,8.980469 c 0.0039,0.441406 0.359375,0.839844 0.75,0.832031 l 9.136718,0 c 0.386719,-0.0039 0.726563,-0.398437 0.730469,-0.832031 l 0,-8.980469 c 0.0078,-0.441406 -0.335937,-0.847656 -0.730469,-0.851562 z m 0.328138,1.066417 8.531354,0 0,7.464923 -8.531354,0 z"/>
</g>
<g style="fill-rule:evenodd" transform="matrix(.93772 0 0 .93772 .99646 1.121)">
<path d="m 10.695312,19.621094 c 0.152344,-0.109375 0.507813,-0.445313 1.089844,-1.019532 0.578125,-0.582031 1.351563,-1.375 2.351563,-2.417968 0.65625,0.933594 1.136719,1.605468 1.492187,2.046875 0.347656,0.4375 0.542969,0.628906 0.589844,0.574219 0.371094,-0.332032 0.679688,-0.613282 0.949219,-0.859376 0.265625,-0.246093 0.46875,-0.449218 0.632812,-0.613281 0.816407,1.023438 1.488281,1.867188 2.082031,2.578125 0.582032,0.707032 1.042969,1.242188 1.402344,1.636719 l -2.214844,-1.839844 c -0.183593,0.46875 -0.484374,0.714844 -0.90625,0.734375 -0.4375,0.01172 -1.097656,-0.515625 -1.628906,-0.613281 C 16,19.730469 15.46875,20.03125 14.996094,19.871094 c -0.484375,-0.171875 -0.859375,-0.851563 -1.3125,-1.023438 -0.457032,-0.175781 -0.917969,-0.175781 -1.402344,0 -0.527344,0.257813 -1.054688,0.515625 -1.585938,0.773438 z"/>
<path d="m 10.667969,19.269531 c 0.152343,-0.113281 0.503906,-0.445312 1.085937,-1.023437 0.578125,-0.578125 1.351563,-1.371094 2.351563,-2.414063 0.65625,0.929688 1.136719,1.605469 1.496093,2.046875 0.347657,0.4375 0.539063,0.625 0.585938,0.574219 0.371094,-0.332031 0.683594,-0.613281 0.949219,-0.859375 0.265625,-0.25 0.472656,-0.453125 0.632812,-0.613281 0.816407,1.023437 1.492188,1.867187 2.082031,2.578125 0.582032,0.707031 1.046876,1.242187 1.402344,1.636718 l -2.214844,-1.84375 c -0.183593,0.476563 -0.480468,0.714844 -0.90625,0.738282 -0.429687,0.01563 -1.09375,-0.519532 -1.628906,-0.613282 -0.535156,-0.09766 -1.0625,0.203126 -1.539062,0.03906 -0.480469,-0.171875 -0.855469,-0.84375 -1.3125,-1.019531 -0.457032,-0.175782 -0.914063,-0.175782 -1.402344,0 -0.527344,0.257812 -1.054688,0.515625 -1.582031,0.777344 z"/>
</g>
<g transform="matrix(.93772 0 0 .93772 .99646 1.121)">
<path d="m 12.703125,18.667969 5.300781,0 c 0.734375,0 1.332032,0.597656 1.332032,1.332031 l 0,0.667969 C 19.335938,21.402344 18.738281,22 18.003906,22 l -5.300781,0 c -0.734375,0 -1.332031,-0.597656 -1.332031,-1.332031 l 0,-0.667969 c 0,-0.734375 0.597656,-1.332031 1.332031,-1.332031 z"/>
<path d="m 19.339844,20 0.65625,0 c 0.367187,0 0.667968,0.296875 0.667968,0.667969 0,0.367187 -0.300781,0.664062 -0.667968,0.664062 l -0.65625,0 c -0.367188,0 -0.667969,-0.296875 -0.667969,-0.664062 C 18.671875,20.296875 18.972656,20 19.339844,20 z"/>
<path d="m 18.691406,19.414062 0.660156,0 c 0.183594,0 0.335938,0.152344 0.335938,0.335938 l 0,0.664062 c 0,0.183594 -0.152344,0.335938 -0.335938,0.335938 l -0.660156,0 c -0.183594,0 -0.332031,-0.152344 -0.332031,-0.335938 l 0,-0.664062 c 0,-0.183594 0.148437,-0.335938 0.332031,-0.335938 z"/>
</g>
</g>
</svg>

<svg width="32" xmlns="http://www.w3.org/2000/svg" height="32" viewBox="0 0 32 32" xmlns:xlink="http://www.w3.org/1999/xlink">
<g style="stroke:#a77b55">
<path style="fill:#a77b55" d="M 5.783203 37.986328 C 5.080078 37.916016 4.482422 37.21875 4.488281 36.474609 L 4.488281 7.792969 C 4.488281 7.001953 5.167969 6.275391 5.923828 6.275391 L 41.255859 6.275391 C 42.005859 6.275391 42.691406 7.001953 42.691406 7.792969 L 42.691406 33.808594 C 42.691406 34.605469 42.005859 35.326172 41.255859 35.326172 L 27.457031 35.326172 L 27.457031 36.474609 C 27.457031 37.265625 26.777344 37.986328 26.027344 37.986328 L 5.923828 37.986328 C 5.876953 37.992188 5.830078 37.992188 5.783203 37.986328 Z " transform="scale(.66667)"/>
<path style="fill:#e9b080" d="M 3.017578 10.019531 C 2.191406 10.089844 1.494141 10.787109 1.494141 11.53125 L 1.494141 40.201172 C 1.494141 40.992188 2.296875 41.712891 3.181641 41.712891 L 44.818359 41.712891 C 45.703125 41.712891 46.505859 40.992188 46.505859 40.201172 L 46.505859 14.197266 C 46.505859 13.400391 45.703125 12.679688 44.818359 12.679688 L 28.558594 12.679688 L 28.558594 11.53125 C 28.558594 10.740234 27.755859 10.019531 26.871094 10.019531 L 3.181641 10.019531 C 3.128906 10.019531 3.076172 10.019531 3.017578 10.019531 Z " transform="scale(.66667)"/>
</g>
<g style="fill:#a77b55">
<path d="M 11.40625 12.667969 C 11.03125 12.703125 10.707031 13.097656 10.714844 13.519531 L 10.714844 22.5 C 10.71875 22.941406 11.074219 23.339844 11.464844 23.332031 L 20.601562 23.332031 C 20.988281 23.328125 21.328125 22.933594 21.332031 22.5 L 21.332031 13.519531 C 21.339844 13.078125 20.996094 12.671875 20.601562 12.667969 Z M 12.035156 14 L 20.007812 14 L 20.007812 20.667969 L 12.035156 20.667969 Z "/>
<g style="fill-rule:evenodd">
<path d="M 10.695312 19.621094 C 10.847656 19.511719 11.203125 19.175781 11.785156 18.601562 C 12.363281 18.019531 13.136719 17.226562 14.136719 16.183594 C 14.792969 17.117188 15.273438 17.789062 15.628906 18.230469 C 15.976562 18.667969 16.171875 18.859375 16.21875 18.804688 C 16.589844 18.472656 16.898438 18.191406 17.167969 17.945312 C 17.433594 17.699219 17.636719 17.496094 17.800781 17.332031 C 18.617188 18.355469 19.289062 19.199219 19.882812 19.910156 C 20.464844 20.617188 20.925781 21.152344 21.285156 21.546875 L 19.070312 19.707031 C 18.886719 20.175781 18.585938 20.421875 18.164062 20.441406 C 17.726562 20.453125 17.066406 19.925781 16.535156 19.828125 C 16 19.730469 15.46875 20.03125 14.996094 19.871094 C 14.511719 19.699219 14.136719 19.019531 13.683594 18.847656 C 13.226562 18.671875 12.765625 18.671875 12.28125 18.847656 C 11.753906 19.105469 11.226562 19.363281 10.695312 19.621094 Z "/>
<path d="M 10.667969 19.269531 C 10.820312 19.15625 11.171875 18.824219 11.753906 18.246094 C 12.332031 17.667969 13.105469 16.875 14.105469 15.832031 C 14.761719 16.761719 15.242188 17.4375 15.601562 17.878906 C 15.949219 18.316406 16.140625 18.503906 16.1875 18.453125 C 16.558594 18.121094 16.871094 17.839844 17.136719 17.59375 C 17.402344 17.34375 17.609375 17.140625 17.769531 16.980469 C 18.585938 18.003906 19.261719 18.847656 19.851562 19.558594 C 20.433594 20.265625 20.898438 20.800781 21.253906 21.195312 L 19.039062 19.351562 C 18.855469 19.828125 18.558594 20.066406 18.132812 20.089844 C 17.703125 20.105469 17.039062 19.570312 16.503906 19.476562 C 15.96875 19.378906 15.441406 19.679688 14.964844 19.515625 C 14.484375 19.34375 14.109375 18.671875 13.652344 18.496094 C 13.195312 18.320312 12.738281 18.320312 12.25 18.496094 C 11.722656 18.753906 11.195312 19.011719 10.667969 19.273438 Z "/>
</g>
<path d="M 12.703125 18.667969 L 18.003906 18.667969 C 18.738281 18.667969 19.335938 19.265625 19.335938 20 L 19.335938 20.667969 C 19.335938 21.402344 18.738281 22 18.003906 22 L 12.703125 22 C 11.96875 22 11.371094 21.402344 11.371094 20.667969 L 11.371094 20 C 11.371094 19.265625 11.96875 18.667969 12.703125 18.667969 Z "/>
<path d="M 19.339844 20 L 19.996094 20 C 20.363281 20 20.664062 20.296875 20.664062 20.667969 C 20.664062 21.035156 20.363281 21.332031 19.996094 21.332031 L 19.339844 21.332031 C 18.972656 21.332031 18.671875 21.035156 18.671875 20.667969 C 18.671875 20.296875 18.972656 20 19.339844 20 Z "/>
<path d="M 18.691406 19.414062 L 19.351562 19.414062 C 19.535156 19.414062 19.6875 19.566406 19.6875 19.75 L 19.6875 20.414062 C 19.6875 20.597656 19.535156 20.75 19.351562 20.75 L 18.691406 20.75 C 18.507812 20.75 18.359375 20.597656 18.359375 20.414062 L 18.359375 19.75 C 18.359375 19.566406 18.507812 19.414062 18.691406 19.414062 Z "/>
</g>
</svg>
